assets/icons/users.svg

<?xml version="1.0" encoding="UTF-8" standalone="no"?>
<svg viewBox="0 0 24 24" height="24" id="svg7384" version="1.1" width="24" sodipodi:docname="users.svg" inkscape:version="1.1 (ce6663b3b7, 2021-05-25)"
   xmlns:inkscape="http://www.inkscape.org/namespaces/inkscape"
   xmlns:sodipodi="http://sodipodi.sourceforge.net/DTD/sodipodi-0.dtd"
   xmlns="http://www.w3.org/2000/svg"
   xmlns:svg="http://www.w3.org/2000/svg"
   xmlns:rdf="http://www.w3.org/1999/02/22-rdf-syntax-ns#"
   xmlns:cc="http://creativecommons.org/ns#"
   xmlns:dc="http://purl.org/dc/elements/1.1/">
   <sodipodi:namedview pagecolor="#ffffff" bordercolor="#666666" borderopacity="1" objecttolerance="10" gridtolerance="10" guidetolerance="10" inkscape:pageopacity="0" inkscape:pageshadow="2" inkscape:window-width="1920" inkscape:window-height="1016" id="namedview7724" showgrid="true" inkscape:zoom="32" inkscape:cx="12.921875" inkscape:cy="12.609375" inkscape:window-x="0" inkscape:window-y="27" inkscape:window-maximized="1" inkscape:current-layer="svg7384" inkscape:pagecheckerboard="0" inkscape:snap-page="true">
      <inkscape:grid type="xygrid" id="grid1040" />
      <inkscape:grid type="xygrid" id="grid839" dotted="true" spacingx="0.5" spacingy="0.5" empspacing="10" />
   </sodipodi:namedview>
   <metadata id="metadata20854">
      <rdf:RDF>
         <cc:Work rdf:about="">
            <dc:format>image/svg+xml</dc:format>
            <dc:type rdf:resource="http://purl.org/dc/dcmitype/StillImage" />
         </cc:Work>
      </rdf:RDF>
   </metadata>
   <defs id="defs7386">
      <linearGradient id="linearGradient5606" inkscape:swatch="solid">
         <stop id="stop5608" offset="0" style="stop-color:#000000;stop-opacity:1;" />
      </linearGradient>
      <linearGradient id="linearGradient4526" inkscape:swatch="solid">
         <stop id="stop4528" offset="0" style="stop-color:#ffffff;stop-opacity:1;" />
      </linearGradient>
      <linearGradient id="linearGradient3600-4" inkscape:swatch="gradient">
         <stop id="stop3602-7" offset="0" style="stop-color:#f4f4f4;stop-opacity:1" />
         <stop id="stop3604-6" offset="1" style="stop-color:#dbdbdb;stop-opacity:1" />
      </linearGradient>
   </defs>
   <g id="layer9" label="status" style="display:inline;stroke-width:0.8;opacity:1" transform="matrix(1.25,0,0,1.25,-1089.2503,235.74994)" />
   <g id="layer2" style="display:inline;stroke-width:0.8;opacity:1" transform="matrix(1.25,0,0,1.25,-788.00002,-223.00006)" />
   <g id="layer4" style="display:inline;stroke-width:0.8;opacity:1" transform="matrix(1.25,0,0,1.25,-788.00002,-223.00006)" />
   <g id="g1812" style="display:inline;stroke-width:0.8;opacity:1" transform="matrix(1.25,0,0,1.25,-788.00002,-223.00006)" />
   <g id="g6217" style="display:inline;stroke-width:0.8;opacity:1" transform="matrix(1.25,0,0,1.25,-788.00002,-223.00006)" />
   <g id="layer3" style="display:inline;stroke-width:0.8;opacity:1" transform="matrix(1.25,0,0,1.25,-788.00002,-223.00006)" />
   <g id="layer1" style="display:inline;stroke-width:0.8;opacity:1" transform="matrix(1.25,0,0,1.25,-788.00002,-223.00006)" />
   <path id="path874" style="color:#000000;fill:#808080;-inkscape-stroke:none" d="M 14.5 7 A 3.5 4 0 0 0 11 11 A 3.5 4 0 0 0 14.5 15 A 3.5 4 0 0 0 18 11 A 3.5 4 0 0 0 14.5 7 z M 14.5 8 A 2.5 3 0 0 1 17 11 A 2.5 3 0 0 1 14.5 14 A 2.5 3 0 0 1 12 11 A 2.5 3 0 0 1 14.5 8 z M 14.5 16 C 11.17308 16 9.2721912 16.770778 8.2089844 17.833984 C 7.1457776 18.897191 7 20.194445 7 21 L 8 21 C 8 20.305556 8.1042243 19.352807 8.9160156 18.541016 C 9.7278069 17.729224 11.326926 17 14.5 17 C 17.673074 17 19.272193 17.729224 20.083984 18.541016 C 20.895776 19.352807 21 20.305556 21 21 L 22 21 C 22 20.194445 21.854222 18.897191 20.791016 17.833984 C 19.727809 16.770778 17.82692 16 14.5 16 z " />
   <path id="path1497" style="color:#000000;fill:#808080;-inkscape-stroke:none" d="m 9.5,12 c -3.3269198,0 -5.2278088,0.770778 -6.2910156,1.833984 -1.0632068,1.063207 -1.2089844,2.360461 -1.2089844,3.166016 h 1 c 0,-0.694444 0.1042243,-1.647193 0.9160156,-2.458984 0.8117913,-0.811792 2.4109106,-1.541016 5.5839844,-1.541016 0.3214575,0 0.622142,0.0091 0.912109,0.02344 -0.136879,-0.321847 -0.244724,-0.660252 -0.314453,-1.013672 -0.1939414,-0.0057 -0.3930656,-0.0098 -0.597656,-0.0098 z" sodipodi:nodetypes="ssccssccs" />
   <path id="path1499" style="fill:#808080;fill-rule:evenodd;stroke:none;stroke-linecap:square;stroke-linejoin:round" d="M 9.5 3 A 3.5 4 0 0 0 6 7 A 3.5 4 0 0 0 9.5 11 A 3.5 4 0 0 0 10.001953 10.958984 C 10.004665 10.596473 10.044692 10.242396 10.115234 9.8984375 A 2.5 3 0 0 1 9.5 10 A 2.5 3 0 0 1 7 7 A 2.5 3 0 0 1 9.5 4 A 2.5 3 0 0 1 11.996094 6.8457031 C 12.289595 6.6259842 12.607544 6.4431876 12.947266 6.3046875 A 3.5 4 0 0 0 9.5 3 z " />
</svg>

<svg height="24" width="24" xmlns="http://www.w3.org/2000/svg"><path style="color:#000;fill:gray;-inkscape-stroke:none" d="M14.5 7a3.5 4 0 0 0-3.5 4 3.5 4 0 0 0 3.5 4 3.5 4 0 0 0 3.5-4 3.5 4 0 0 0-3.5-4zm0 1a2.5 3 0 0 1 2.5 3 2.5 3 0 0 1-2.5 3 2.5 3 0 0 1-2.5-3 2.5 3 0 0 1 2.5-3zm0 8c-3.327 0-5.228.77-6.291 1.834C7.146 18.897 7 20.194 7 21h1c0-.694.104-1.647.916-2.459S11.326 17 14.5 17c3.173 0 4.772.73 5.584 1.541.812.812.916 1.765.916 2.459h1c0-.806-.146-2.103-1.209-3.166C19.728 16.771 17.827 16 14.5 16zm-5-4c-3.327 0-5.228.77-6.291 1.834C2.146 14.897 2 16.194 2 17h1c0-.694.104-1.647.916-2.459S6.326 13 9.5 13c.321 0 .622.01.912.023a5.123 5.123 0 0 1-.314-1.013c-.194-.006-.393-.01-.598-.01z"/><path style="fill:gray;stroke:none;stroke-linecap:square;stroke-linejoin:round" d="M9.5 3A3.5 4 0 0 0 6 7a3.5 4 0 0 0 3.5 4 3.5 4 0 0 0 .502-.041c.003-.363.043-.717.113-1.06A2.5 3 0 0 1 9.5 10 2.5 3 0 0 1 7 7a2.5 3 0 0 1 2.5-3 2.5 3 0 0 1 2.496 2.846c.294-.22.612-.403.951-.541A3.5 4 0 0 0 9.5 3z"/></svg>
